FINK
CUT[WIE IST DER ABEND SO TRAULICH]
REG[Europa, Mitteleuropa, Deutschland]
KEY[F1018  16  F 6/8]
MEL[5_  3__3_4_.34_  5__+1_3__
    5_  1_.23_3_.45_  2__.5__
    5_  3__3_4_.34_  5__+1_3__
    5_  1_.23_5_.423  1___0_ //] >>
FCT[Erbauungs - Lied, religioes; Tageszeiten - Lied, Abend]
